static/assets/img/icons/theme/shopping/cart-2.svg

<svg height="24" viewBox="0 0 24 24" width="24" xmlns="http://www.w3.org/2000/svg"><g fill="none" fill-rule="evenodd"><path d="m0 0h24v24h-24z" opacity="0"/><g fill="#000"><path d="m12 4.56204994-4.23177872 5.07813446c-.35356408.4242769-.98412878.481601-1.40840568.12803688-.4242769-.35356408-.48160096-.98412878-.12803688-1.40840568l4.99999998-6c.3997951-.47975413 1.1366475-.47975413 1.5364426 0l5 6c.3535641.4242769.29624 1.0548416-.1280369 1.40840568-.4242769.35356412-1.0548416.29624002-1.4084057-.12803688z" fill-rule="nonzero" opacity=".3"/><path d="m3.28077641 9h17.43844719c.5522847 0 1 .44771525 1 1 0 .0817618-.0100274.163215-.0298575.2425356l-2.1212678 8.4850713c-.3338753 1.335501-1.5338246 2.2723931-2.9104275 2.2723931h-9.31534158c-1.37660293 0-2.57655225-.9368921-2.9104275-2.2723931l-2.12126781-8.4850713c-.13394873-.53579488.19181196-1.07872937.72760687-1.2126781.07932061-.01983015.16077382-.0298575.24253563-.0298575zm8.71922359 3c-.5522847 0-1 .4477153-1 1v4c0 .5522847.4477153 1 1 1s1-.4477153 1-1v-4c0-.5522847-.4477153-1-1-1zm-5.03527618.1362967c-.5334661.1429418-.85004859.6912788-.70710678 1.2247449l1.03527618 3.8637033c.14294181.5334661.69127877.8500486 1.22474487.7071068.5334661-.1429419.85004859-.6912788.70710678-1.2247449l-1.03527618-3.8637033c-.14294181-.5334661-.69127877-.8500486-1.22474487-.7071068zm10.07055238 0c-.5334661-.1429418-1.0818031.1736407-1.2247449.7071068l-1.0352762 3.8637033c-.1429418.5334661.1736407 1.081803.7071068 1.2247449.5334661.1429418 1.0818031-.1736407 1.2247449-.7071068l1.0352762-3.8637033c.1429418-.5334661-.1736407-1.0818031-.7071068-1.2247449z"/></g></g></svg>

<svg width="24px" height="24px" viewBox="0 0 24 24" version="1.1" xmlns="http://www.w3.org/2000/svg" xmlns:xlink="http://www.w3.org/1999/xlink">
    <title>Icon For Cart#2</title>
    <g stroke="none" stroke-width="1" fill="none" fill-rule="evenodd">
        <rect opacity="0" x="0" y="0" width="24" height="24"></rect>
        <path d="M12,4.56204994 L7.76822128,9.6401844 C7.4146572,10.0644613 6.7840925,10.1217854 6.3598156,9.76822128 C5.9355387,9.4146572 5.87821464,8.7840925 6.23177872,8.3598156 L11.2317787,2.3598156 C11.6315738,1.88006147 12.3684262,1.88006147 12.7682213,2.3598156 L17.7682213,8.3598156 C18.1217854,8.7840925 18.0644613,9.4146572 17.6401844,9.76822128 C17.2159075,10.1217854 16.5853428,10.0644613 16.2317787,9.6401844 L12,4.56204994 Z" fill="#000000" fill-rule="nonzero" opacity="0.3"></path>
        <path d="M3.28077641,9 L20.7192236,9 C21.2715083,9 21.7192236,9.44771525 21.7192236,10 C21.7192236,10.0817618 21.7091962,10.163215 21.6893661,10.2425356 L19.5680983,18.7276069 C19.234223,20.0631079 18.0342737,21 16.6576708,21 L7.34232922,21 C5.96572629,21 4.76577697,20.0631079 4.43190172,18.7276069 L2.31063391,10.2425356 C2.17668518,9.70674072 2.50244587,9.16380623 3.03824078,9.0298575 C3.11756139,9.01002735 3.1990146,9 3.28077641,9 Z M12,12 C11.4477153,12 11,12.4477153 11,13 L11,17 C11,17.5522847 11.4477153,18 12,18 C12.5522847,18 13,17.5522847 13,17 L13,13 C13,12.4477153 12.5522847,12 12,12 Z M6.96472382,12.1362967 C6.43125772,12.2792385 6.11467523,12.8275755 6.25761704,13.3610416 L7.29289322,17.2247449 C7.43583503,17.758211 7.98417199,18.0747935 8.51763809,17.9318517 C9.05110419,17.7889098 9.36768668,17.2405729 9.22474487,16.7071068 L8.18946869,12.8434035 C8.04652688,12.3099374 7.49818992,11.9933549 6.96472382,12.1362967 Z M17.0352762,12.1362967 C16.5018101,11.9933549 15.9534731,12.3099374 15.8105313,12.8434035 L14.7752551,16.7071068 C14.6323133,17.2405729 14.9488958,17.7889098 15.4823619,17.9318517 C16.015828,18.0747935 16.564165,17.758211 16.7071068,17.2247449 L17.742383,13.3610416 C17.8853248,12.8275755 17.5687423,12.2792385 17.0352762,12.1362967 Z" fill="#000000"></path>
    </g>
</svg>
